pix/i/marker.svg

<!DOCTYPE svg PUBLIC "-//W3C//DTD SVG 1.1//EN" "http://www.w3.org/Graphics/SVG/1.1/DTD/svg11.dtd" [
	<!ENTITY ns_flows "http://ns.adobe.com/Flows/1.0/">
]><svg xmlns="http://www.w3.org/2000/svg" width="16" height="16" viewBox="-1.2 0 16 16" preserveAspectRatio="xMinYMid meet" overflow="visible"><path d="M9.9 13.6l-6 .5s-.1-.5-.3-1l6.8-.5c-.2.2-.4.7-.5 1zM4.2 15c.2.4.4.8.7.8 0 0 .7.2 2 .2s2-.2 2-.2c.3 0 .6-.7.8-1.2l-5.5.4zM0 6.8C0 3.1 3.1 0 6.8 0c3.8 0 6.8 3.1 6.8 6.8 0 1.8-1.3 3.6-2.3 4.6l-8.5.7c-.6-.6-2.8-3-2.8-5.3zm1.9.1c0 2 2.2 3.8 2.6 4.1h4.7c.3-.3 2.6-2 2.6-4.1 0-2.7-2.2-4.9-5-4.9-2.7 0-4.9 2.2-4.9 4.9zM7 3.1c-.6-.6-1.8-.4-2.7.5s-1.2 2.1-.6 2.7c.6.6 1.8.3 2.7-.6s1.2-2 .6-2.6z" fill="#999"/></svg>

<?xml version="1.0" encoding="utf-8"?>
<!-- Generator: Adobe Illustrator 15.1.0, SVG Export Plug-In  -->
<!DOCTYPE svg PUBLIC "-//W3C//DTD SVG 1.1//EN" "http://www.w3.org/Graphics/SVG/1.1/DTD/svg11.dtd" [
	<!ENTITY ns_flows "http://ns.adobe.com/Flows/1.0/">
]>
<svg version="1.1"
	 xmlns="http://www.w3.org/2000/svg" xmlns:xlink="http://www.w3.org/1999/xlink" xmlns:a="http://ns.adobe.com/AdobeSVGViewerExtensions/3.0/"
	 x="0px" y="0px" width="16px" height="16px" viewBox="-1.2 0 16 16" style="overflow:visible;enable-background:new -1.2 0 16 16;"
	 xml:space="preserve" preserveAspectRatio="xMinYMid meet">
<defs>
</defs>
<path style="fill:#999999;" d="M9.9,13.6l-6,0.5l0,0c0,0-0.1-0.5-0.3-1l6.8-0.5C10.2,12.8,10,13.3,9.9,13.6z M4.2,15
	c0.2,0.4,0.4,0.8,0.7,0.8c0,0,0.7,0.2,2,0.2s2-0.2,2-0.2c0.3,0,0.6-0.7,0.8-1.2L4.2,15z M0,6.8C0,3.1,3.1,0,6.8,0
	c3.8,0,6.8,3.1,6.8,6.8c0,1.8-1.3,3.6-2.3,4.6l-8.5,0.7C2.2,11.5,0,9.1,0,6.8z M1.9,6.9c0,2,2.2,3.8,2.6,4.1h4.7
	c0.3-0.3,2.6-2,2.6-4.1C11.8,4.2,9.6,2,6.8,2C4.1,2,1.9,4.2,1.9,6.9z M7,3.1C6.4,2.5,5.2,2.7,4.3,3.6S3.1,5.7,3.7,6.3
	c0.6,0.6,1.8,0.3,2.7-0.6S7.6,3.7,7,3.1z"/>
</svg>
